Newaita-dark/apps/48/ms-people.svg

<svg height="48pt" viewBox="0 0 48 48" width="48pt" xmlns="http://www.w3.org/2000/svg" xmlns:xlink="http://www.w3.org/1999/xlink"><linearGradient id="a"><stop offset="0" stop-opacity=".313725"/><stop offset=".222222" stop-opacity=".27451"/><stop offset="1" stop-opacity="0"/></linearGradient><radialGradient id="b" cx="450.908936" cy="189.579361" gradientTransform="matrix(.00000026 -.117199 -.210958 -.00000015 77.203692 95.392996)" gradientUnits="userSpaceOnUse" r="21.166656" xlink:href="#a"/><radialGradient id="c" cx="450.908936" cy="189.579361" gradientTransform="matrix(-.00000026 .117199 .210958 .00000015 -29.574134 -11.291221)" gradientUnits="userSpaceOnUse" r="21.166656" xlink:href="#a"/><radialGradient id="d" cx="450.908936" cy="189.579361" gradientTransform="matrix(-.00000026 -.117199 .210958 -.00000015 -29.574134 95.392996)" gradientUnits="userSpaceOnUse" r="21.166656" xlink:href="#a"/><radialGradient id="e" cx="450.908936" cy="189.579361" gradientTransform="matrix(.00000026 .117199 -.210958 .00000015 77.203689 -11.291222)" gradientUnits="userSpaceOnUse" r="21.166656" xlink:href="#a"/><linearGradient id="f" gradientTransform="matrix(.400801 0 0 .074923 -74.549864 24.955063)" gradientUnits="userSpaceOnUse" x1="255.322968" x2="255.323044" y1="228.178589" y2="254.666656"><stop offset="0" stop-opacity=".27451"/><stop offset="1" stop-opacity="0"/></linearGradient><linearGradient id="g" gradientUnits="userSpaceOnUse" x1="30.7607662501" x2="30.7607662501" y1="42.0509015" y2="4.34415649995"><stop offset="0" stop-color="#e0e0e0"/><stop offset="1" stop-color="#eee"/></linearGradient><linearGradient id="h"><stop offset="0" stop-color="#7e57c2"/><stop offset="1" stop-color="#9575cd"/></linearGradient><linearGradient id="i" gradientUnits="userSpaceOnUse" x1="11.907393" x2="11.907393" xlink:href="#h" y1="42.0509015" y2="4.3441580001"/><linearGradient id="j" gradientUnits="userSpaceOnUse" x1="317.5" x2="317.5" xlink:href="#h" y1="233.5" y2="-168.666672"/><linearGradient id="k" gradientUnits="userSpaceOnUse" x1="1200" x2="1200" xlink:href="#h" y1="1695.118164" y2="175.118118"/><path d="m37.707031 42.050781h3.96875v-1.984375h-3.96875zm0 0" fill="url(#b)"/><path d="m9.921875 42.050781h-3.96875v1.984375h3.96875zm0 0" fill="url(#c)"/><path d="m9.921875 42.050781h-3.96875v-1.984375h3.96875zm0 0" fill="url(#d)"/><path d="m37.707031 42.050781h3.96875v1.984375h-3.96875zm0 0" fill="url(#e)"/><path d="m9.921875 41.261719h27.785156v2.773437h-27.785156zm0 0" fill="url(#f)"/><path d="m16.867188 4.34375h22.824218c1.097656 0 1.984375.890625 1.984375 1.984375v33.738281c0 1.097656-.886719 1.984375-1.984375 1.984375h-22.824218c-1.09375 0-1.984376-.886719-1.984376-1.984375v-33.738281c0-1.09375.890626-1.984375 1.984376-1.984375zm0 0" fill="url(#g)"/><path d="m41.675781 24.191406-7.496093 2.609375 2.609374 7.496094 4.886719-1.699219zm-8.746093 3.046875-7.496094 2.609375 2.609375 7.496094 7.5-2.609375zm8.746093 6.757813-4.449219 1.550781 2.265626 6.503906h.199218c1.097656 0 1.984375-.886719 1.984375-1.984375zm-5.699219 1.984375-7.496093 2.613281 1.203125 3.457031h8.40625zm0 0" fill="#222" fill-opacity=".156863"/><path d="m16.867188 4.34375c-1.097657 0-1.984376.886719-1.984376 1.984375v.496094c0-1.097657.886719-1.984375 1.984376-1.984375h22.824218c1.097656 0 1.984375.886718 1.984375 1.984375v-.496094c0-1.097656-.886719-1.984375-1.984375-1.984375zm0 0" fill="#fff"/><path d="m14.882812 39.570312v.496094c0 1.097656.886719 1.984375 1.984376 1.984375h22.824218c1.097656 0 1.984375-.886719 1.984375-1.984375v-.496094c0 1.097657-.886719 1.984376-1.984375 1.984376h-22.824218c-1.097657 0-1.984376-.886719-1.984376-1.984376zm0 0" fill-opacity=".235294"/><path d="m16.867188 4.203125c-1.171876 0-2.125.949219-2.125 2.125v33.738281c0 1.175782.953124 2.125 2.125 2.125h22.824218c1.175782 0 2.125-.949218 2.125-2.125v-33.738281c0-1.175781-.949218-2.125-2.125-2.125zm0 .28125h22.824218c1.023438 0 1.84375.820313 1.84375 1.84375v33.738281c0 1.023438-.820312 1.84375-1.84375 1.84375h-22.824218c-1.023438 0-1.84375-.820312-1.84375-1.84375v-33.738281c0-1.023437.820312-1.84375 1.84375-1.84375zm0 0" fill="#212121"/><path d="m7.9375 4.34375c-1.097656 0-1.984375.886719-1.984375 1.984375v33.738281c0 1.097656.886719 1.984375 1.984375 1.984375h9.921875v-37.707031zm0 0" fill="url(#i)"/><path d="m7.9375 4.34375c-1.097656 0-1.984375.886719-1.984375 1.984375v.496094c0-1.097657.886719-1.984375 1.984375-1.984375h9.425781v37.210937h.496094v-37.707031zm0 0" fill="#fff" fill-opacity=".392157"/><path d="m5.953125 39.570312v.496094c0 1.097656.886719 1.984375 1.984375 1.984375h9.921875v-.496093h-9.921875c-1.097656 0-1.984375-.886719-1.984375-1.984376zm0 0" fill-opacity=".235294"/><path d="m7.9375 4.203125c-1.175781 0-2.125.949219-2.125 2.125v33.738281c0 1.175782.949219 2.125 2.125 2.125h9.921875c.078125 0 .140625-.0625.140625-.140625v-37.707031c0-.078125-.0625-.140625-.140625-.140625zm0 .28125h9.78125v37.425781h-9.78125c-1.023438 0-1.84375-.820312-1.84375-1.84375v-33.738281c0-1.023437.820312-1.84375 1.84375-1.84375zm0 0" fill="#212121"/><g stroke="#212121" stroke-linecap="round" stroke-linejoin="round"><path d="m317.511346-105.177154c35.038321 0 63.493936 28.455616 63.493936 63.493936 0 35.079984-28.455615 63.5356-63.493936 63.5356-35.079984 0-63.493937-28.455616-63.493937-63.5356 0-35.03832 28.413953-63.493936 63.493937-63.493936zm0 0" fill="url(#j)" stroke-width="3" transform="matrix(.093759 0 0 .093759 0 20.158175)"/><path d="m1023.209429 965.892065c-109.595839 41.098439-183.132128 119.201221-183.132128 209.271365v119.988548c0 22.202605 17.793577 39.996182 39.996183 39.996182h639.938922c22.202606 0 39.996183-17.793577 39.996183-39.996182v-119.988548c0-90.070144-73.693754-168.172926-183.132128-209.271365-51.491148 31.178126-111.957818 49.286634-176.833516 49.286634s-125.499833-18.108508-176.833516-49.286634zm0 0" fill="url(#k)" stroke-width="11.338583" transform="scale(.0248071)"/></g></svg>

<?xml version="1.0" encoding="UTF-8"?>
<svg xmlns="http://www.w3.org/2000/svg" xmlns:xlink="http://www.w3.org/1999/xlink" width="48pt" height="48pt" viewBox="0 0 48 48" version="1.1">
<defs>
<radialGradient id="radial0" gradientUnits="userSpaceOnUse" cx="450.908936" cy="189.579361" fx="450.908936" fy="189.579361" r="21.166656" gradientTransform="matrix(0.000000261256,-0.117199,-0.210958,-0.000000152308,77.203692,95.392996)">
<stop offset="0" style="stop-color:rgb(0%,0%,0%);stop-opacity:0.313725;"/>
<stop offset="0.222222" style="stop-color:rgb(0%,0%,0%);stop-opacity:0.27451;"/>
<stop offset="1" style="stop-color:rgb(0%,0%,0%);stop-opacity:0;"/>
</radialGradient>
<radialGradient id="radial1" gradientUnits="userSpaceOnUse" cx="450.908936" cy="189.579361" fx="450.908936" fy="189.579361" r="21.166656" gradientTransform="matrix(-0.000000261256,0.117199,0.210958,0.000000152308,-29.574134,-11.291221)">
<stop offset="0" style="stop-color:rgb(0%,0%,0%);stop-opacity:0.313725;"/>
<stop offset="0.222222" style="stop-color:rgb(0%,0%,0%);stop-opacity:0.27451;"/>
<stop offset="1" style="stop-color:rgb(0%,0%,0%);stop-opacity:0;"/>
</radialGradient>
<radialGradient id="radial2" gradientUnits="userSpaceOnUse" cx="450.908936" cy="189.579361" fx="450.908936" fy="189.579361" r="21.166656" gradientTransform="matrix(-0.000000261256,-0.117199,0.210958,-0.000000152308,-29.574134,95.392996)">
<stop offset="0" style="stop-color:rgb(0%,0%,0%);stop-opacity:0.313725;"/>
<stop offset="0.222222" style="stop-color:rgb(0%,0%,0%);stop-opacity:0.27451;"/>
<stop offset="1" style="stop-color:rgb(0%,0%,0%);stop-opacity:0;"/>
</radialGradient>
<radialGradient id="radial3" gradientUnits="userSpaceOnUse" cx="450.908936" cy="189.579361" fx="450.908936" fy="189.579361" r="21.166656" gradientTransform="matrix(0.000000261256,0.117199,-0.210958,0.000000152308,77.203689,-11.291222)">
<stop offset="0" style="stop-color:rgb(0%,0%,0%);stop-opacity:0.313725;"/>
<stop offset="0.222222" style="stop-color:rgb(0%,0%,0%);stop-opacity:0.27451;"/>
<stop offset="1" style="stop-color:rgb(0%,0%,0%);stop-opacity:0;"/>
</radialGradient>
<linearGradient id="linear0" gradientUnits="userSpaceOnUse" x1="255.322968" y1="228.178589" x2="255.323044" y2="254.666656" gradientTransform="matrix(0.400801,0,0,0.074923,-74.549864,24.955063)">
<stop offset="0" style="stop-color:rgb(0%,0%,0%);stop-opacity:0.27451;"/>
<stop offset="1" style="stop-color:rgb(0%,0%,0%);stop-opacity:0;"/>
</linearGradient>
<linearGradient id="linear1" gradientUnits="userSpaceOnUse" x1="328.083344" y1="233.5" x2="328.083344" y2="-168.666672" gradientTransform="matrix(0.093759,0,0,0.093759,0,20.158175)">
<stop offset="0" style="stop-color:rgb(87.843137%,87.843137%,87.843137%);stop-opacity:1;"/>
<stop offset="1" style="stop-color:rgb(93.333333%,93.333333%,93.333333%);stop-opacity:1;"/>
</linearGradient>
<linearGradient id="linear2" gradientUnits="userSpaceOnUse" x1="127" y1="233.5" x2="127" y2="-168.666656" gradientTransform="matrix(0.093759,0,0,0.093759,-0.00000031253,20.158175)">
<stop offset="0" style="stop-color:rgb(49.411765%,34.117647%,76.078431%);stop-opacity:1;"/>
<stop offset="1" style="stop-color:rgb(58.431373%,45.882353%,80.392157%);stop-opacity:1;"/>
</linearGradient>
<linearGradient id="linear3" gradientUnits="userSpaceOnUse" x1="317.5" y1="233.5" x2="317.5" y2="-168.666672" gradientTransform="matrix(1,0,0,1,0,0)">
<stop offset="0" style="stop-color:rgb(49.411765%,34.117647%,76.078431%);stop-opacity:1;"/>
<stop offset="1" style="stop-color:rgb(58.431373%,45.882353%,80.392157%);stop-opacity:1;"/>
</linearGradient>
<linearGradient id="linear4" gradientUnits="userSpaceOnUse" x1="1200" y1="1695.118164" x2="1200" y2="175.118118" gradientTransform="matrix(1,0,0,1,0,0)">
<stop offset="0" style="stop-color:rgb(49.411765%,34.117647%,76.078431%);stop-opacity:1;"/>
<stop offset="1" style="stop-color:rgb(58.431373%,45.882353%,80.392157%);stop-opacity:1;"/>
</linearGradient>
</defs>
<g id="surface1">
<path style=" stroke:none;fill-rule:nonzero;fill:url(#radial0);" d="M 37.707031 42.050781 L 41.675781 42.050781 L 41.675781 40.066406 L 37.707031 40.066406 Z M 37.707031 42.050781 "/>
<path style=" stroke:none;fill-rule:nonzero;fill:url(#radial1);" d="M 9.921875 42.050781 L 5.953125 42.050781 L 5.953125 44.035156 L 9.921875 44.035156 Z M 9.921875 42.050781 "/>
<path style=" stroke:none;fill-rule:nonzero;fill:url(#radial2);" d="M 9.921875 42.050781 L 5.953125 42.050781 L 5.953125 40.066406 L 9.921875 40.066406 Z M 9.921875 42.050781 "/>
<path style=" stroke:none;fill-rule:nonzero;fill:url(#radial3);" d="M 37.707031 42.050781 L 41.675781 42.050781 L 41.675781 44.035156 L 37.707031 44.035156 Z M 37.707031 42.050781 "/>
<path style=" stroke:none;fill-rule:nonzero;fill:url(#linear0);" d="M 9.921875 41.261719 L 37.707031 41.261719 L 37.707031 44.035156 L 9.921875 44.035156 Z M 9.921875 41.261719 "/>
<path style=" stroke:none;fill-rule:nonzero;fill:url(#linear1);" d="M 16.867188 4.34375 L 39.691406 4.34375 C 40.789062 4.34375 41.675781 5.234375 41.675781 6.328125 L 41.675781 40.066406 C 41.675781 41.164062 40.789062 42.050781 39.691406 42.050781 L 16.867188 42.050781 C 15.773438 42.050781 14.882812 41.164062 14.882812 40.066406 L 14.882812 6.328125 C 14.882812 5.234375 15.773438 4.34375 16.867188 4.34375 Z M 16.867188 4.34375 "/>
<path style=" stroke:none;fill-rule:nonzero;fill:rgb(13.333334%,13.333334%,13.333334%);fill-opacity:0.156863;" d="M 41.675781 24.191406 L 34.179688 26.800781 L 36.789062 34.296875 L 41.675781 32.597656 Z M 32.929688 27.238281 L 25.433594 29.847656 L 28.042969 37.34375 L 35.542969 34.734375 Z M 41.675781 33.996094 L 37.226562 35.546875 L 39.492188 42.050781 L 39.691406 42.050781 C 40.789062 42.050781 41.675781 41.164062 41.675781 40.066406 Z M 35.976562 35.980469 L 28.480469 38.59375 L 29.683594 42.050781 L 38.089844 42.050781 Z M 35.976562 35.980469 "/>
<path style=" stroke:none;fill-rule:nonzero;fill:rgb(100%,100%,100%);fill-opacity:1;" d="M 16.867188 4.34375 C 15.769531 4.34375 14.882812 5.230469 14.882812 6.328125 L 14.882812 6.824219 C 14.882812 5.726562 15.769531 4.839844 16.867188 4.839844 L 39.691406 4.839844 C 40.789062 4.839844 41.675781 5.726562 41.675781 6.824219 L 41.675781 6.328125 C 41.675781 5.230469 40.789062 4.34375 39.691406 4.34375 Z M 16.867188 4.34375 "/>
<path style=" stroke:none;fill-rule:nonzero;fill:rgb(0%,0%,0%);fill-opacity:0.235294;" d="M 14.882812 39.570312 L 14.882812 40.066406 C 14.882812 41.164062 15.769531 42.050781 16.867188 42.050781 L 39.691406 42.050781 C 40.789062 42.050781 41.675781 41.164062 41.675781 40.066406 L 41.675781 39.570312 C 41.675781 40.667969 40.789062 41.554688 39.691406 41.554688 L 16.867188 41.554688 C 15.769531 41.554688 14.882812 40.667969 14.882812 39.570312 Z M 14.882812 39.570312 "/>
<path style=" stroke:none;fill-rule:nonzero;fill:rgb(12.941177%,12.941177%,12.941177%);fill-opacity:1;" d="M 16.867188 4.203125 C 15.695312 4.203125 14.742188 5.152344 14.742188 6.328125 L 14.742188 40.066406 C 14.742188 41.242188 15.695312 42.191406 16.867188 42.191406 L 39.691406 42.191406 C 40.867188 42.191406 41.816406 41.242188 41.816406 40.066406 L 41.816406 6.328125 C 41.816406 5.152344 40.867188 4.203125 39.691406 4.203125 Z M 16.867188 4.484375 L 39.691406 4.484375 C 40.714844 4.484375 41.535156 5.304688 41.535156 6.328125 L 41.535156 40.066406 C 41.535156 41.089844 40.714844 41.910156 39.691406 41.910156 L 16.867188 41.910156 C 15.84375 41.910156 15.023438 41.089844 15.023438 40.066406 L 15.023438 6.328125 C 15.023438 5.304688 15.84375 4.484375 16.867188 4.484375 Z M 16.867188 4.484375 "/>
<path style=" stroke:none;fill-rule:nonzero;fill:url(#linear2);" d="M 7.9375 4.34375 C 6.839844 4.34375 5.953125 5.230469 5.953125 6.328125 L 5.953125 40.066406 C 5.953125 41.164062 6.839844 42.050781 7.9375 42.050781 L 17.859375 42.050781 L 17.859375 4.34375 Z M 7.9375 4.34375 "/>
<path style=" stroke:none;fill-rule:nonzero;fill:rgb(100%,100%,100%);fill-opacity:0.392157;" d="M 7.9375 4.34375 C 6.839844 4.34375 5.953125 5.230469 5.953125 6.328125 L 5.953125 6.824219 C 5.953125 5.726562 6.839844 4.839844 7.9375 4.839844 L 17.363281 4.839844 L 17.363281 42.050781 L 17.859375 42.050781 L 17.859375 4.34375 Z M 7.9375 4.34375 "/>
<path style=" stroke:none;fill-rule:nonzero;fill:rgb(0%,0%,0%);fill-opacity:0.235294;" d="M 5.953125 39.570312 L 5.953125 40.066406 C 5.953125 41.164062 6.839844 42.050781 7.9375 42.050781 L 17.859375 42.050781 L 17.859375 41.554688 L 7.9375 41.554688 C 6.839844 41.554688 5.953125 40.667969 5.953125 39.570312 Z M 5.953125 39.570312 "/>
<path style=" stroke:none;fill-rule:nonzero;fill:rgb(12.941177%,12.941177%,12.941177%);fill-opacity:1;" d="M 7.9375 4.203125 C 6.761719 4.203125 5.8125 5.152344 5.8125 6.328125 L 5.8125 40.066406 C 5.8125 41.242188 6.761719 42.191406 7.9375 42.191406 L 17.859375 42.191406 C 17.9375 42.191406 18 42.128906 18 42.050781 L 18 4.34375 C 18 4.265625 17.9375 4.203125 17.859375 4.203125 Z M 7.9375 4.484375 L 17.71875 4.484375 L 17.71875 41.910156 L 7.9375 41.910156 C 6.914062 41.910156 6.09375 41.089844 6.09375 40.066406 L 6.09375 6.328125 C 6.09375 5.304688 6.914062 4.484375 7.9375 4.484375 Z M 7.9375 4.484375 "/>
<path style="fill-rule:nonzero;fill:url(#linear3);stroke-width:3;stroke-linecap:round;stroke-linejoin:round;stroke:rgb(12.941177%,12.941177%,12.941177%);stroke-opacity:1;stroke-miterlimit:4;" d="M 317.511346 -105.177154 C 352.549667 -105.177154 381.005282 -76.721538 381.005282 -41.683218 C 381.005282 -6.603234 352.549667 21.852382 317.511346 21.852382 C 282.431362 21.852382 254.017409 -6.603234 254.017409 -41.683218 C 254.017409 -76.721538 282.431362 -105.177154 317.511346 -105.177154 Z M 317.511346 -105.177154 " transform="matrix(0.093759,0,0,0.093759,0,20.158175)"/>
<path style="fill-rule:nonzero;fill:url(#linear4);stroke-width:11.338583;stroke-linecap:round;stroke-linejoin:round;stroke:rgb(12.941177%,12.941177%,12.941177%);stroke-opacity:1;stroke-miterlimit:4;" d="M 1023.209429 965.892065 C 913.61359 1006.990504 840.077301 1085.093286 840.077301 1175.16343 L 840.077301 1295.151978 C 840.077301 1317.354583 857.870878 1335.14816 880.073484 1335.14816 L 1520.012406 1335.14816 C 1542.215012 1335.14816 1560.008589 1317.354583 1560.008589 1295.151978 L 1560.008589 1175.16343 C 1560.008589 1085.093286 1486.314835 1006.990504 1376.876461 965.892065 C 1325.385313 997.070191 1264.918643 1015.178699 1200.042945 1015.178699 C 1135.167247 1015.178699 1074.543112 997.070191 1023.209429 965.892065 Z M 1023.209429 965.892065 " transform="matrix(0.0248071,0,0,0.0248071,0,0)"/>
</g>
</svg>
